!!!COM: Schiørring, Niels
!!!CDT: 1743-1798
!!!OPR@@DA: Choral-Bog
!!!ONM: 57
!!!OTL@@DA: Jeſus er mit Lib i Live
**kern	**fb	**kern	**kern	**kern	**kern	**kern	**kern	**kern
*part6	*part6	*part6	*part5	*part5	*part4	*part3	*part2	*part1
*staff8	*	*staff7	*staff6	*staff5	*staff4	*staff3	*staff2	*staff1
*clefF4	*	*clefC1	*clefF4	*clefC1	*clefF4	*clefC4	*clefC3	*clefC1
*	*	*	*	*	*	*Trd0c0	*	*
*k[]	*	*k[]	*k[]	*k[]	*k[]	*k[]	*k[]	*k[]
*M4/4	*	*M4/4	*M4/4	*M4/4	*M4/4	*M4/4	*M4/4	*M4/4
*met(c)	*	*met(c)	*met(c)	*met(c)	*met(c)	*met(c)	*met(c)	*met(c)
*MM180	*	*MM180	*MM180	*MM180	*MM180	*MM180	*MM180	*MM180
=1	=1	=1	=1	=1	=1	=1	=1	=1
*	*	*	*	*^	*	*	*	*
*	*	*	*	*	*^	*	*	*	*
1D	.	2dd	1D	2dd	2f	2a\	2D	2ff	2a	2dd
.	.	2a	.	2a	2f	2a\	2D	2ff	2a	2a
=2	=2	=2	=2	=2	=2	=2	=2	=2	=2	=2
2B	6	2dd	2B	2dd	2d	2g#X\	2B	2dd	2g#X	2dd
2G#X	5	2dd	2G#X	2dd	2e	[2b\	2G#X	[2b	2e	2dd
=3	=3	=3	=3	=3	=3	=3	=3	=3	=3	=3
*	*	*	*^	*	*	*	*	*	*	*
2A	9	2cc	2A	2A	2cc	2b]	2e\	2A	2b]	2e	2cc
2C	6	2cc	2C	[2A	2cc	2a	2e\	2C	[2a	2e	2cc
=4	=4	=4	=4	=4	=4	=4	=4	=4	=4	=4	=4
2D	6 5	1b	2D	2A]	1b	2f	1r	(2D	(2a]	(2f	1b
2E	#	.	2E	2G#X	.	2e	.	2E)	2g#X)	2e)	.
=5	=5	=5	=5	=5	=5	=5	=5	=5	=5	=5	=5
1AA	.	1a	1AA	1A	1a	1e	1c\	1AA	1a	1c	1a
=6	=6	=6	=6	=6	=6	=6	=6	=6	=6	=6	=6
2D	.	2f	2D	2A	2f	2d	1r	2D	2a	2d	2f
2C	6	2a	2C	2c	2a	2e	.	2C	2cc	2e	2a
=7	=7	=7	=7	=7	=7	=7	=7	=7	=7	=7	=7
*	*	*	*	*	*	*	*^	*	*	*	*
2BB-X	6	2g	2BB-X	2G	2g	2ryy@	2d\	1r	2BB-X	2g	2d	2g
*	*	*	*v	*v	*	*	*	*	*	*	*	*
2AA	6 4	2f	2AA	2f	2A	[2d\	.	2AA	2a	[2d	2f
=8	=8	=8	=8	=8	=8	=8	=8	=8	=8	=8	=8
2GG	6 5 -	2e	2GG	2e	2B-X	2d\]	1r	2GG	2b-X	2d]	2e
*	*	*	*^	*	*	*	*	*	*	*	*
2AA	#	2e	2AA	4A	2e	4ryy@	2c#X\	.	2AA	(4a	2c#X	2e
.	.	.	.	4G	.	4ryy@	.	.	.	4g)	.	.
*	*	*	*	*	*	*	*v	*v	*	*	*	*
=9	=9	=9	=9	=9	=9	=9	=9	=9	=9	=9	=9
1D	.	1d	1D	1F	1d	1A	1r	1D	1f	1d	1d
*	*	*	*v	*v	*	*	*	*	*	*	*
=10:|!	=10:|!	=10:|!	=10:|!	=10:|!	=10:|!	=10:|!	=10:|!	=10:|!	=10:|!	=10:|!
*	*	*	*	*	*	*^	*	*	*	*
4D	.	2f	4D	2f	2A	2d\	1r	(4D	2a	2d	2f
4C	.	.	4C	.	.	.	.	4C)	.	.	.
4BB-X	6	2g	4BB-X	2g	2B-X	2d\	.	(4BB-X	2dd	2d	2g
4AA	.	.	4AA	.	.	.	.	4AA)	.	.	.
=11	=11	=11	=11	=11	=11	=11	=11	=11	=11	=11	=11
2GG	.	2b-X	2GG	2b-X	2B-X	2d\	1r	2GG	2dd	2g	2b-X
2E	-r5	2b-	2E	2b-	2c	[2g\	.	2E	2cc	[2g	2b-
=12	=12	=12	=12	=12	=12	=12	=12	=12	=12	=12	=12
2F	9	2a	2F	2a	2c	2g\]	1r	2F	2cc	2g]	2a
2D	3	2a	2D	2a	2d	[2f\	.	2D	2dd	[2f	2a
=13	=13	=13	=13	=13	=13	=13	=13	=13	=13	=13	=13
2BB	5	1g	2BB	1g	2d	2f\]	1r	(2BB	(2dd	(2f]	1g
*	*	*	*^	*	*	*	*	*	*	*	*
2C	.	.	2C	4c	.	4ryy@	2e\	.	2C)	2cc)	2e)	.
.	.	.	.	4B-X	.	4ryy@	.	.	.	.	.	.
*	*	*	*	*	*	*	*v	*v	*	*	*	*
=14	=14	=14	=14	=14	=14	=14	=14	=14	=14	=14	=14
*	*	*	*	*	*	*	*	*^	*	*	*
1FF	.	1f	1F	1A	1f	1c	1r	1F	1FF	1a	1f	1f
*	*	*	*v	*v	*	*	*	*v	*v	*	*	*
=15	=15	=15	=15	=15	=15	=15	=15	=15	=15	=15
*	*	*	*	*	*	*^	*	*	*	*
4B-X	.	2f	4B-X	2f	2B-X	2d\	1r	(4B-X	2b-X	2d	2f
4A	.	.	4A	.	.	.	.	4A)	.	.	.
4G	-	2g	4G	2g	2B-	2d\	.	(4G	2b-	2d	2g
4F	.	.	4F	.	.	.	.	4F)	.	.	.
=16	=16	=16	=16	=16	=16	=16	=16	=16	=16	=16	=16
4E	-r5	2b-X	4E	2b-X	4c	2g\	1r	(4E	(4cc	2g	2b-X
4C	.	.	4C	.	4e	.	.	4C)	4ee)	.	.
4D	-r6	2b-	4D	2b-	4d	4f\	.	(4D	(4dd	(4f	2b-
4E	-r5	.	4E	.	4c	4g\	.	4E)	4cc)	4g)	.
=17	=17	=17	=17	=17	=17	=17	=17	=17	=17	=17	=17
4F	.	2a	4F	2a	4c	4f\	1r	(4F	(4cc	(4a	2a
4C#X	5	.	4C#X	.	4e	4g\	.	4C#X)	4ee)	4g)	.
4D	.	2a	4D	2a	4d	[2f\	.	(4D	(4ff	[2f	2a
4AA	6	.	4AA	.	4cni	.	.	4AA)	4cc)	.	.
=18	=18	=18	=18	=18	=18	=18	=18	=18	=18	=18	=18
4BB-X	6 5	1g	4BB-X	1g	2d	2f\]	1r	(4BB-X	(2dd	(2f]	1g
4GG	.	.	4GG	.	.	.	.	4GG	.	.	.
*	*	*	*	*	*	*	*	*^	*	*	*
4Cni	.	.	4Cni	.	4c	2e\	.	2Cni)	4Cni	2cc)	2e)	.
4CC	.	.	4CC	.	4B-X	.	.	.	4CC	.	.	.
=19	=19	=19	=19	=19	=19	=19	=19	=19	=19	=19	=19	=19
1FF	.	1f	1FF	1f	1A	1c\	1r	1F	1FF	1a	1f	1f
*	*	*	*	*	*	*v	*v	*	*	*	*	*
*	*	*	*	*	*	*	*v	*v	*	*	*
=20	=20	=20	=20	=20	=20	=20	=20	=20	=20	=20
*	*	*	*^	*	*	*	*	*	*	*
2F	.	2a	2F	2c	2a	2f	1r	2F	2cc	2f	2a
2D	nr6	2b	2D	2d	2b	2f	.	2D	2dd	2f	2b
*	*	*	*v	*v	*	*	*	*	*	*	*
=21	=21	=21	=21	=21	=21	=21	=21	=21	=21	=21
*	*	*	*	*	*	*^	*	*	*	*
[2C	.	2cc	1C	2cc	2e	2g\	1r	[2C	2ee	2g	2cc
2C]	4	2a	.	2a	2d	2f#X\	.	2C]	2dd	2f#X	2a
=22	=22	=22	=22	=22	=22	=22	=22	=22	=22	=22	=22
2BB-X	6	2dd	2BB-X	2dd	2d	2g\	1r	2BB-X	2dd	2g	2dd
2GG#X	7 n	2dd	2GG#X	2dd	2fni	2bni\	.	2GG#X	2b	2fni	2dd
=23	=23	=23	=23	=23	=23	=23	=23	=23	=23	=23	=23
1AA	#	1cc#X	1AA	1cc#X	1e	1a\	1r	1AA	[1a	1e	1cc#X
=24	=24	=24	=24	=24	=24	=24	=24	=24	=24	=24	=24
2BB-X	7	2dd	4BB-X	2dd	2d	2a\	1r	2BB-X	2a]	2d	2dd
.	.	.	4B-X	.	.	.	.	.	.	.	.
*	*	*	*^	*	*	*	*	*	*	*	*
2BBn	5	2ff	2Bn	2d	2ff	2ryy@	2g\	.	2BBn	[2g	2d	2ff
*	*	*	*v	*v	*	*	*	*	*	*	*	*
=25	=25	=25	=25	=25	=25	=25	=25	=25	=25	=25	=25
2C#X	5	2ee	2c#X	2ee	2g	2a\	1r	2C#X	2g]	2a	2ee
2D	.	2dd	2d	2dd	2f	2a\	.	2D	2f	2a	2dd
*	*	*	*	*	*	*v	*v	*	*	*	*
=26	=26	=26	=26	=26	=26	=26	=26	=26	=26	=26
*	*	*	*^	*	*	*	*	*	*	*
2GG	6 5 -	2dd	2G	1e	2dd	2b-X	1r	2GG	2b-X	2e	2dd
2AA	#	2cc#X	2A	.	2cc#X	2a	.	2AA	2a	2e	2cc#X
=27	=27	=27	=27	=27	=27	=27	=27	=27	=27	=27	=27
1D	.	1dd	1D	1d	1dd	1a	1f\	1D	1a	1f	1dd
*	*	*	*v	*v	*	*	*	*	*	*	*
*	*	*	*	*v	*v	*v	*	*	*	*
==	==	==	==	==	==	==	==	==
*-	*-	*-	*-	*-	*-	*-	*-	*-
!!!system-decoration: {(s1,s2,s3,s4)}{(s5,s6)}{(s7,s8)}
!!!RDF**kern: i = editorial accidental
!!!AGN: chorale
!!!EED: Derek Remeš
!!!EED2: Victor Phan
!!!END: 2023/11/28
!!!ENC: Wolfgang Drescher
!!!EEV: 2023/11/28
!!!title: @{ONM}. @{OTL}